X: 31144
T: Paddy Fahey's
R: reel
M: 4/4
K: Fmajor
F3 G Ac|:fedg fdcA|F2AF cFAd|fedg fdcA|FGAc dG~G2|
fedg fdcA|F2AF cFA2|agfa g2 (3fed|c2Ac dG~G2:|
|:B2GD AGEG|FcAF cF (3Acd|B2GD AGEG|FdcA dG~G2|
B2GD AGEG|FcAF cF A2|agfa g2 (3fed|c2Ac dG~G2:|

